X:1
T:Howl at the Moon
C:c. 1997 Kaubells (following an idea of Jim Thompson)
R:Jig
N:To be played following "Jump at the Sun"
% E:18
M:6/8
K:E
\bigskip
\bigskip
"E"EGB "F"B,2B,|"E"EGB "F"B,2B,|"E"EGB edc|"B7"BAG F2B,|*
"E"EGB "F"B,2B,|"E"EGB "F"B,2B,|"E"EGB "F"=cA=F|"B7"B,^CD "E"E3:|*
"E"B2E EDE|"B7"F2B, B,3|"E"B2E EDE|"B7"F3 "(HOWL!)"z3|*
"E"B2E EDE|"B7"F2B, B,3|"F"=C2=F A2=c|"B7"B,^CD "E"E3:|*
